X: 1
T: And when it rains ...
C: Wouter Joubert (2019-10-38)
%D:2019-10-38
R: strathspey
Z: 2022 John Chambers <jc:trillian.mit.edu>
N: Wouter had "Bm" chords in bars 2,6; it's clearly "Bbm" (as in bars 4,8).
M: C
L: 1/8
K: Fm
|:\
"Fm"c<F F>A "F"=A>c c>=e | "Bbm/F"f>c d>B "Bbm7/F"c>F =e<d | "Fm"<F F>A "F"=A>c c>=e | "Bbm"d>B "C7"c>A "Fm"G<F F2 |
"Fm"c<F F>A "F"=A>c c>=e | "Bbm/F"f>c d>B "Bbm7/F"c>F =e<d | "Fm"<F F>A "F"=A>c c>=e | "Bbm"d>B "C7"c>A "Fm"G<F F>E ||
||\
"Bb"=D<F B>=d "F"c<f =A<c | "Bb"-d>=e "F"=a<f f>e | "Bb"=d<f B<f "F/A" c<f =A<f | "Bb"=d>f "F"c=A "C7"[AE]<G "Dm"f=E |
"Bb"=D<F B>=d "F"c<f =A<c | "Bb"-d>=e "F"=a<f f>e | "Bb"=d<f B<f "F/A" c<f =A<f | "Bb"=d>f "C7"c>A "Fm"G<F F2 :|
